!!!COM: Bach, Johann Sebastian
!!!OTL@@DE: 305. Wie s&ouml;chn leuchtet der Morgenstern
!!!OTL@EN: How brightly shines the morning star
!!!SCA: BWV 36.4
**harm	**root	**kern	**kern	**kern	**kern
*staff2	*	*staff2	*staff2	*staff1	*staff1
*Iorgan	*Iorgan	*Iorgan	*Iorgan	*Iorgan	*Iorgan
*>[A,A,B]	*>[A,A,B]	*>[A,A,B]	*>[A,A,B]	*>[A,A,B]	*>[A,A,B]
*>norep[A,B]	*>norep[A,B]	*>norep[A,B]	*>norep[A,B]	*>norep[A,B]	*>norep[A,B]
*>A	*>A	*>A	*>A	*>A	*>A
!	!	!bass	!tenor	!alto	!sprno
*	*	*clefF4	*clefF4	*clefG2	*clefG2
*k[f#]	*k[f#]	*k[f#]	*k[f#]	*k[f#]	*k[f#]
*G:	*G:	*G:	*G:	*G:	*G:
*met(c)	*met(c)	*met(c)	*met(c)	*met(c)	*met(c)
*M4/4	*M4/4	*M4/4	*M4/4	*M4/4	*M4/4
*MM60	*MM60	*MM60	*MM60	*MM60	*MM60
I	4DD	4G	4B	4d	4g
=1	=1	=1	=1	=1	=1
Vb	4AA	4F#	4A	4d	4dd
I	8DD	8GL	8GL	4d	8bL
Vb	8AA	8F#J	8AJ	.	8aJ
vi	4BB	4E	8BL	4e	4g
.	.	.	8c#J	.	.
iii	4FF#	8BL	4d	4f#	4dd
.	.	8AJ	.	.	.
=2	=2	=2	=2	=2	=2
vi7	4BB	8GL	4d	4b	8.eeL
.	.	8EJ	.	.	.
.	.	.	.	.	32ff#LL
.	.	.	.	.	32ggJJJ
V/V	4EE	4A	4c#	4a	8ff#L
.	.	.	.	.	8eeJ
V;	4AA;	4D;	4f#;	4a;	4dd;
I	4DD	4G	4g	4b	4dd
=3	=3	=3	=3	=3	=3
IV	4GG	4c	4g	4cc	4ee
viiob	4CC#	8BL	4a	4cc	4ff#
.	.	8AJ	.	.	.
Ib	4DD	8BL	8dL	4b	4gg
.	.	8c#J	8eJ	.	.
V	4AA	4d	4f#	8aL	4ff#
.	.	.	.	8ddJ	.
=4	=4	=4	=4	=4	=4
vi7b	8BB	4G	8BL	4dd	8eeL
I	8DD	.	8bJ	.	8ggJ
V7/V	4EE	4A	8aL	4cc#	8ff#L
.	.	.	8gJ	.	8eeJ
V;	4AA;	4D;	4f#;	4a;	4dd;
I	4DD	4G	4d	4g	4b
=5	=5	=5	=5	=5	=5
IV	4GG	4c	4c	4g	4ee
Ib	4DD	4B	4d	4g	4dd
viio7b	4CC#	4A	8eL	8gL	4cc
.	.	.	8cJ	8f#J	.
I	4DD	4G	4d	4g	4b
=6	=6	=6	=6	=6	=6
V7	2AA	2D	4.d	4g	2a
.	.	.	.	4f#	.
.	.	.	8c	.	.
I;	4DD;	4G;	4B;	4d;	4g;
=7:|!	=7:|!	=7:|!	=7:|!	=7:|!	=7:|!
!!linebreak: 2
*>B	*>B	*>B	*>B	*>B	*>B
Vb	2AA	2F#	2d	2a	2dd
I;	2DD;	2G;	2d;	2g;	2b;
=8	=8	=8	=8	=8	=8
V	2AA	2D	2f#	2a	2dd
I;	2DD;	2G;	2d;	2g;	2b;
=9	=9	=9	=9	=9	=9
I	4DD	8GL	4d	4g	4b
.	.	8A	.	.	.
Ib	4DD	8B	4d	4g	4b
.	.	8cJ	.	.	.
V	4AA	8dL	4d	4f#	4a
.	.	8e	.	.	.
V	4AA	8d	4d	4f#	4a
.	.	8cJ	.	.	.
=10	=10	=10	=10	=10	=10
Ib	4DD	8BL	4d	4g	4b
.	.	8A	.	.	.
I	4DD	8B	4d	4g	4b
.	.	8GJ	.	.	.
V	4AA	8DL	4d	4f#	4a
.	.	8d	.	.	.
viiob/II	4DD#	8c	4d	4g#	4b
.	.	8BJ	.	.	.
=11	=11	=11	=11	=11	=11
ii	4EE	4A	8eL	4a	4cc
.	.	.	8f#J	.	.
vi	4BB	8eL	4g	8gL	4b
.	.	8dJ	.	8f#J	.
ii7b	4EE	4c	8gL	4e	2a
.	.	.	16f#L	.	.
.	.	.	16eJJ	.	.
V7	4AA	4d	8dL	4f#	.
.	.	.	8cJ	.	.
=12	=12	=12	=12	=12	=12
I;	2DD;	2G;	2B;	2d;	2g;
vi	4BB	4E	8BL	4b	4gg
.	.	.	8c#J	.	.
V/VI	4FF#	4BB	4d#	8bL	4ff#
.	.	.	.	8aJ	.
=13	=13	=13	=13	=13	=13
IV	4GG	4C	4e	8gL	4ee
.	.	.	.	8aJ	.
iiib	4FF#	4D	4f#	[4b	4dd
IV7	8GG	8EL	8gL	8b]	4cc
viio	8CC#	8F#J	8aJ	4a	.
I	4DD	4G	4d	.	4b
.	.	.	.	[8g	.
=14	=14	=14	=14	=14	=14
ii	4EE	4C	4e	8gL]	2a
.	.	.	.	16f#L	.
.	.	.	.	16eJJ	.
V7	4AA	4D	8dL	4f#	.
.	.	.	8cJ	.	.
I;	4DD;	4GG;	4B;	4d;	4g;
==	==	==	==	==	==
*-	*-	*-	*-	*-	*-
!!!ENC: Craig Stuart Sapp
!!!END: 2004/12/06/
!!chor2scor: -l 2 -s 0.6 -o %b.pmx!!chor2scor: -l 2 -s 0.6 -o %b.pmx
